X:1
T:Title
%%score { ( 1 4 ) | ( 2 3 ) }
L:1/8
M:4/4
K:G
V:1 treble nm="Grand Piano"
V:4 treble 
V:2 bass 
V:3 bass 
V:1
 z4 z2[Q:1/4=100] D2 | G2 FG A2 G2 | c4 B2 G2 | A2 z A B2 c2 | [Bd]6 [=FG]2 | %5
 [Ee]2 [=Fd]2 [CEc]2 BA | d4 G2 [EGc]2 | z2 .[CA]2 z4 | [B,DG]6 GA | B2 AB c2 A2 | B4 G2 [EG]A | %11
 [B,GB]2 [B,GB]2 [CFA]2 [^CEG]2 | [F,^DF]6 [^CE][DF] | [EG]2 [FA]2 [GB]2 [E^c]2 | [Dd]4 z4 | %15
 [DA]2 [B,DF]2 [B,G]2[K:bass] [G,^CE]2 |[M:3/4] [F,D]6 |[M:1/4][K:treble] D2 | %18
[M:4/4] [B,DG]2 D-[DG] [CDA]2 [B,DG]2 | [EGc]4 z4 | A2 z A [DGB]2 [EGc]2 |[M:3/4] [=FGd]6 | %22
[M:1/4] [B,=FG]2 |[M:4/4] [Ee]2 [=Fd]2 [CEc]2 BA | d4 G2 [EGc]2 | [DGB]2 [CEA][DG] [CEA]2 [A,DF]2 | %26
[M:3/4] [B,DG]6 |] %27
V:2
 z4 z2 [G,B,]2 | [G,B,D]2 [G,D]-[G,B,D] [G,CD]2[K:treble] [G,B,D]2 | [G,EG]4 [G,DG]2 [G,B,]2 | %3
 [G,CG]2 B,C [G,DG]2 [G,EG]2 | [G,=F]6[K:bass] [G,B,]2 | z2 .A,2 z4[K:treble] | %6
 [B,DG]4[K:bass] [E,B,]2 A,,2 | D,2 z B, D,2 D,2 | z4 z2 [E,E]2 | z2 [E,E]2 z4 | %10
 [E,G,E]4 [E,B,E]2 z F | G,,2 G,,2 A,,2 _B,,2 | B,,6 [B,,A,]2 | [E,G,]2 [D,C]2 [G,B,]2 [F,_B,]2 | %14
 B,2 z2 z4 | z4 .E,2 z2 |[M:3/4] D,6 |[M:1/4] D,2 |[M:4/4] G,,2 z B, G,2 G,2 | %19
 C,2 z2[K:treble] [G,DG]2 [G,B,]2 | [G,CG]2 DC G,2 C2 |[M:3/4] C2[K:bass] B,A, B,2 |[M:1/4] G,2 | %23
[M:4/4] [C,C]2 C,-[C,B,] C,2[K:treble] [C^DF]2 | [B,DG]4[K:bass] [E,B,]2 A,,2 | D,2 z B, D,2 D,2 | %26
[M:3/4] G,,6 |] %27
V:3
 x8 | z2 .A,2 z4[K:treble] | x8 | z2 G,2 z4 | x6[K:bass] x2 | %5
 [C,C]2 C,-[C,B,] C,2[K:treble] [CDF]2 | x4[K:bass] x4 | z2 D,2 z4 | G,,6 z F, | %9
 [E,G,E]2 F,G, [E,A,E]2 [E,F,E]2 | z4 z2 [C,C]2 | x8 | x8 | x8 | B,,4 [G,,E,]2 [^G,,=F,]2 | %15
 [A,,F,]2 A,,2 A,,-[A,,F,] A,,2 |[M:3/4] x6 |[M:1/4] x2 |[M:4/4] z2 G,,2 z4 | x4[K:treble] x4 | %20
 z2 G,2 z4 |[M:3/4] x2[K:bass] x4 |[M:1/4] x2 |[M:4/4] z2 .A,2 z4[K:treble] | x4[K:bass] x4 | %25
 z2 D,2 z4 |[M:3/4] x6 |] %27
V:4
 x8 | x8 | x8 | z2 G2 z4 | x8 | x8 | x8 | [DGB]2 D-[DG] [CDA]2 [A,DF]2 | x8 | x8 | x8 | x8 | x8 | %13
 x8 | z2 D,2 [D^c]2 [DB]2 | x6[K:bass] x2 |[M:3/4] x6 |[M:1/4][K:treble] x2 | %18
[M:4/4] z2 .[A,F]2 z4 | z2 E,2 B2 G2 | z2 G2 z4 |[M:3/4] x6 |[M:1/4] x2 |[M:4/4] x8 | x8 | x8 | %26
[M:3/4] x6 |] %27

